!!!OTL: Dongbei de jiefang
!!!ARE: Asia, China,ÿLiaoning Changhai
!! III, 223
!!!SCT: C1734
!!!YEM: Copyright 1995, estate of Helmut Schaffrath.
**kern
*ICvox
*Ivox
*M2/4
*k[b-]
*F:
{8g
8f
8g
8a
=1
8cc
16a
16g
4a
=2
8g
8f
8g
8a
=3
2cc}
=4
{8cc
8ff
8dd
8cc
=5
8cc
8ff
8dd
8cc
=6
8cc
8a
8g
8a
=7
8cc
8dd
8cc
8b-
=8
8a
8g
4f}
=9
{8g
8f
8cc
8b-
=10
8a
8f
8aa
8gg
=11
[2ff
=12
2ff]}
==
!!!AGN: Xiaodiao, Shuangwugeng diao
!!!AMT: simple duple
!!!AIN: vox
!!!EED: Helmut Schaffrath
!!!EEV: 1.0
*-
!!!ONB: Tied note syntax fixed by Craig Sapp, 2004/05/03/
